X:1
T:Kensington
T:Braine
T:Kensington
C:Braine
%%score { ( 1 2 ) | ( 3 4 ) }
L:1/8
Q:1/2=120
M:3/2
K:Eb
V:1 treble nm="Piano" snm="Pno."
V:2 treble 
V:3 bass 
V:4 bass 
V:1
 B4 | (B4 E4) F4 | G8 B4 | (e4 A4) c4 | B8 F4 | (G4 =A4) B4 | (d4 c4) F4 | B8 B4 | (B4 c4) B4 | %9
 A8 A4 | (c4 B4) F4 | G8 G4 | G8 G4 | (B4 A4) F4 | E8 |] %15
V:2
 E4 | E8 D4 | E8 G4 | A8 A4 | G8 D4 | (E4 F4) E4 | E8 E4 | D8 (G2 F2) | E8 =E4 | F8 F4 | D8 D4 | %11
 E8 F4 | E8 =E4 | (=E4 F4) D4 | E8 |] %15
V:3
 G,4 | G,8 A,4 | B,8 _D4 | C8 D4 | E8 B,4 | (B,4 C4) B,4 | =A,8 A,4 | B,8 (B,2 A,2) | G,8 C4 | %9
 C8 A,4 | F,8 B,4 | B,8 =B,4 | C8 B,4 | (G,4 C4) A,4 | G,8 |] %15
V:4
 E,4 | E,8 E,4 | E,8 E,4 | E,8 E,4 | E,8 B,4 | E,8 E,4 | F,8 F,4 | B,,8 E,4 | C,8 C,4 | F,8 F,4 | %10
 B,,8 B,,4 | E,8 D,4 | C,8 C,4 | F,8 B,,4 | E,8 |] %15

